X: 33304
T: Quadrille Franco-Américain
R: jig
M: 6/8
K: Dmajor
|:A2f fed|B2g gfe|c2e ABc|def A3|
A2f fed|B2g gfe|c2e ABc|1 dfe d3:|2 d4 ef||
|:g2b bag|f2a agf|d2f fed|c2d e2f|
g2b bag|f2a agc|a2c a2A|ABc d3:|

